src/pos-icons/ski.svg

<svg height="24" viewBox="0 0 24 24" width="24" xmlns="http://www.w3.org/2000/svg"><path d="m15.3 18.3 1.7-5.4 1.4.4-1.7 5.4zm2-13.1c.9 0 1.7-.8 1.7-1.7s-.7-1.7-1.7-1.7c-.9 0-1.7.8-1.7 1.7s.8 1.7 1.7 1.7m4 14.6c-.6.3-1.2.6-1.9.7s-1.4.1-2.1-.1l-6.3-1.9 2.4-6.8-2.5-3 2.9-1.6s1.1 2.9 1.2 3.2.3.5.6.6l4.1 1.2.5-1.8-.9-.4.6-2.1-1.4-.4-.5 2-1.2-.5-1.4-3.9c-.4-.8-1.4-1.2-2.3-.8l-4.6 2.5c-.9.5-1.2 1.6-.7 2.4.1.2 3 3.2 3 3.2l-1.7 5.7-6.8-2-.3 1.3 14.9 4.4c1.7.5 3.5.3 5.1-.6z"/></svg>

<?xml version="1.0" encoding="UTF-8"?><!DOCTYPE svg PUBLIC "-//W3C//DTD SVG 1.1//EN" "http://www.w3.org/Graphics/SVG/1.1/DTD/svg11.dtd"><svg xmlns="http://www.w3.org/2000/svg" xmlns:xlink="http://www.w3.org/1999/xlink" version="1.1" id="mdi-ski" width="24" height="24" viewBox="0 0 24 24"><path d="M15.3 18.3L17 12.9L18.4 13.3L16.7 18.7L15.3 18.3M17.3 5.2C18.2 5.2 19 4.4 19 3.5S18.3 1.8 17.3 1.8C16.4 1.8 15.6 2.6 15.6 3.5S16.4 5.2 17.3 5.2M21.3 19.8C20.7 20.1 20.1 20.4 19.4 20.5C18.7 20.6 18 20.6 17.3 20.4L11 18.5L13.4 11.7L10.9 8.7L13.8 7.1C13.8 7.1 14.9 10 15 10.3S15.3 10.8 15.6 10.9L19.7 12.1L20.2 10.3L19.3 9.9L19.9 7.8L18.5 7.4L18 9.4L16.8 8.9L15.4 5C15 4.2 14 3.8 13.1 4.2L8.5 6.7C7.6 7.2 7.3 8.3 7.8 9.1C7.9 9.3 10.8 12.3 10.8 12.3L9.1 18L2.3 16L2 17.3L16.9 21.7C18.6 22.2 20.4 22 22 21.1L21.3 19.8Z" /></svg>
